flaticon/dialogue/chat-51.svg

<svg xmlns="http://www.w3.org/2000/svg" width="32" height="32" viewBox="0 0 24 24">
    <path d="M 23.625 14.742188 C 23.871094 13.78125 24 12.792969 24 11.800781 C 24 5.292969 18.707031 0 12.199219 0 C 5.691406 0 0.398438 5.292969 0.398438 11.800781 C 0.398438 13.859375 0.9375 15.878906 1.957031 17.660156 L 0.0195312 23.472656 C -0.0273438 23.613281 0.0078125 23.765625 0.109375 23.875 C 0.183594 23.957031 0.292969 24 0.398438 24 C 0.433594 24 0.46875 23.996094 0.5 23.988281 L 6.847656 22.316406 C 9.445312 23.640625 12.53125 23.953125 15.359375 23.164062 C 15.824219 23.25 16.308594 23.296875 16.800781 23.296875 C 17.792969 23.296875 18.753906 23.117188 19.65625 22.761719 C 21.273438 23.671875 23.449219 23.984375 23.542969 23.996094 C 23.5625 24 23.582031 24 23.597656 24 C 23.75 24 23.890625 23.914062 23.957031 23.777344 C 24.035156 23.625 24.003906 23.4375 23.882812 23.316406 C 23.378906 22.8125 23.027344 21.734375 22.886719 20.269531 C 23.617188 19.230469 24 18.035156 24 16.800781 C 24 16.082031 23.863281 15.390625 23.625 14.742188 Z M 13.765625 22.6875 C 11.875 22.960938 9.925781 22.71875 8.15625 22.019531 L 10.085938 21.589844 C 10.300781 21.542969 10.4375 21.328125 10.390625 21.113281 C 10.34375 20.898438 10.128906 20.761719 9.914062 20.808594 L 6.808594 21.5 C 6.804688 21.5 6.804688 21.503906 6.800781 21.503906 C 6.800781 21.503906 6.796875 21.503906 6.792969 21.503906 L 1.011719 23.023438 L 2.773438 17.742188 C 2.8125 17.632812 2.796875 17.511719 2.738281 17.410156 C 1.730469 15.714844 1.199219 13.777344 1.199219 11.800781 C 1.199219 5.734375 6.132812 0.800781 12.199219 0.800781 C 18.265625 0.800781 23.199219 5.734375 23.199219 11.800781 C 23.199219 12.398438 23.152344 13 23.054688 13.589844 C 23 13.503906 22.9375 13.421875 22.878906 13.335938 C 22.804688 13.226562 22.722656 13.121094 22.640625 13.015625 C 22.578125 12.9375 22.515625 12.863281 22.453125 12.789062 C 22.394531 12.722656 22.335938 12.65625 22.273438 12.589844 C 22.183594 12.496094 22.089844 12.402344 21.992188 12.3125 C 21.914062 12.238281 21.828125 12.164062 21.746094 12.089844 C 21.660156 12.019531 21.574219 11.949219 21.488281 11.878906 C 21.414062 11.824219 21.34375 11.769531 21.269531 11.714844 C 21.175781 11.648438 21.082031 11.585938 20.988281 11.523438 C 20.871094 11.453125 20.757812 11.382812 20.640625 11.3125 C 20.546875 11.261719 20.453125 11.207031 20.359375 11.160156 C 20.269531 11.113281 20.183594 11.070312 20.09375 11.03125 C 19.996094 10.984375 19.890625 10.941406 19.789062 10.898438 C 19.667969 10.847656 19.546875 10.800781 19.421875 10.757812 C 19.304688 10.714844 19.183594 10.671875 19.0625 10.636719 C 18.980469 10.613281 18.894531 10.589844 18.8125 10.566406 C 18.664062 10.527344 18.515625 10.492188 18.363281 10.460938 C 18.300781 10.449219 18.238281 10.4375 18.175781 10.425781 C 17.996094 10.394531 17.8125 10.367188 17.625 10.347656 C 17.566406 10.34375 17.503906 10.335938 17.445312 10.332031 C 17.230469 10.316406 17.015625 10.304688 16.800781 10.304688 C 12.828125 10.304688 9.601562 13.21875 9.601562 16.800781 C 9.601562 16.996094 9.613281 17.1875 9.632812 17.378906 C 9.640625 17.449219 9.648438 17.515625 9.65625 17.582031 C 9.675781 17.703125 9.695312 17.824219 9.71875 17.945312 C 9.734375 18.023438 9.75 18.101562 9.769531 18.179688 C 9.796875 18.300781 9.832031 18.414062 9.867188 18.53125 C 9.917969 18.6875 9.972656 18.84375 10.03125 18.996094 C 10.050781 19.039062 10.066406 19.082031 10.085938 19.125 C 10.140625 19.253906 10.199219 19.378906 10.261719 19.5 C 10.265625 19.507812 10.269531 19.515625 10.273438 19.523438 C 10.480469 19.929688 10.738281 20.3125 11.03125 20.671875 C 11.039062 20.675781 11.042969 20.683594 11.046875 20.6875 C 11.335938 21.035156 11.660156 21.355469 12.019531 21.640625 C 12.039062 21.660156 12.0625 21.679688 12.085938 21.695312 C 12.1875 21.777344 12.292969 21.855469 12.398438 21.929688 C 12.453125 21.964844 12.507812 22.003906 12.558594 22.039062 C 12.660156 22.105469 12.761719 22.171875 12.863281 22.230469 C 13.007812 22.316406 13.15625 22.398438 13.308594 22.476562 C 13.394531 22.519531 13.480469 22.554688 13.570312 22.597656 C 13.632812 22.628906 13.699219 22.660156 13.765625 22.6875 Z M 22.152344 19.921875 C 22.097656 19.996094 22.070312 20.09375 22.078125 20.191406 C 22.152344 21.074219 22.328125 22.167969 22.734375 23.027344 C 21.941406 22.84375 20.785156 22.511719 19.894531 21.976562 C 19.832031 21.9375 19.761719 21.917969 19.691406 21.917969 C 19.636719 21.917969 19.585938 21.929688 19.535156 21.949219 C 18.675781 22.3125 17.753906 22.496094 16.800781 22.496094 C 16.296875 22.496094 15.808594 22.4375 15.339844 22.339844 C 15.007812 22.273438 14.6875 22.183594 14.378906 22.070312 C 14.378906 22.070312 14.378906 22.070312 14.375 22.070312 C 14.246094 22.019531 14.117188 21.964844 13.988281 21.910156 C 13.945312 21.890625 13.902344 21.875 13.859375 21.855469 C 13.734375 21.796875 13.613281 21.730469 13.492188 21.667969 C 13.453125 21.644531 13.414062 21.625 13.378906 21.605469 C 13.253906 21.535156 13.128906 21.457031 13.011719 21.378906 C 12.988281 21.363281 12.964844 21.347656 12.941406 21.332031 C 12.808594 21.246094 12.683594 21.152344 12.5625 21.058594 C 12.558594 21.054688 12.554688 21.050781 12.550781 21.046875 C 11.769531 20.425781 11.164062 19.632812 10.796875 18.753906 C 10.785156 18.726562 10.773438 18.703125 10.765625 18.675781 C 10.71875 18.558594 10.675781 18.4375 10.636719 18.316406 C 10.621094 18.261719 10.605469 18.207031 10.589844 18.152344 C 10.5625 18.046875 10.535156 17.945312 10.511719 17.839844 C 10.492188 17.75 10.480469 17.664062 10.464844 17.574219 C 10.453125 17.492188 10.4375 17.414062 10.429688 17.335938 C 10.410156 17.15625 10.398438 16.980469 10.398438 16.800781 C 10.398438 13.660156 13.269531 11.105469 16.800781 11.105469 C 16.996094 11.105469 17.191406 11.113281 17.386719 11.128906 C 17.453125 11.136719 17.519531 11.144531 17.589844 11.152344 C 17.710938 11.164062 17.835938 11.179688 17.957031 11.203125 C 18.035156 11.214844 18.113281 11.226562 18.191406 11.242188 C 18.300781 11.265625 18.410156 11.289062 18.515625 11.316406 C 18.59375 11.335938 18.675781 11.355469 18.753906 11.375 C 18.914062 11.421875 19.070312 11.472656 19.226562 11.53125 C 19.320312 11.566406 19.410156 11.605469 19.5 11.640625 C 19.574219 11.675781 19.652344 11.707031 19.726562 11.738281 C 19.816406 11.78125 19.90625 11.828125 19.996094 11.871094 C 20.066406 11.90625 20.132812 11.945312 20.203125 11.984375 C 20.289062 12.03125 20.378906 12.082031 20.460938 12.136719 C 20.527344 12.175781 20.589844 12.21875 20.652344 12.261719 C 20.804688 12.363281 20.949219 12.472656 21.09375 12.585938 C 21.148438 12.632812 21.203125 12.675781 21.257812 12.722656 C 21.335938 12.789062 21.40625 12.859375 21.480469 12.925781 C 21.53125 12.976562 21.582031 13.023438 21.628906 13.074219 C 21.703125 13.148438 21.773438 13.226562 21.84375 13.304688 C 21.882812 13.347656 21.917969 13.394531 21.957031 13.441406 C 22.03125 13.53125 22.101562 13.617188 22.167969 13.710938 C 22.179688 13.726562 22.191406 13.746094 22.207031 13.765625 C 22.457031 14.117188 22.664062 14.496094 22.824219 14.898438 C 23.0625 15.492188 23.199219 16.132812 23.199219 16.800781 C 23.199219 17.914062 22.839844 18.992188 22.152344 19.921875 Z M 22.152344 19.921875"/>
    <path d="M13.199219 15.199219C12.316406 15.199219 11.601562 15.917969 11.601562 16.800781 11.601562 17.683594 12.316406 18.398438 13.199219 18.398438 14.082031 18.398438 14.800781 17.683594 14.800781 16.800781 14.800781 15.917969 14.082031 15.199219 13.199219 15.199219zM13.199219 17.601562C12.757812 17.601562 12.398438 17.242188 12.398438 16.800781 12.398438 16.359375 12.757812 16 13.199219 16 13.640625 16 14 16.359375 14 16.800781 14 17.242188 13.640625 17.601562 13.199219 17.601562zM16.800781 15.199219C15.917969 15.199219 15.199219 15.917969 15.199219 16.800781 15.199219 17.683594 15.917969 18.398438 16.800781 18.398438 17.683594 18.398438 18.398438 17.683594 18.398438 16.800781 18.398438 15.917969 17.683594 15.199219 16.800781 15.199219zM16.800781 17.601562C16.359375 17.601562 16 17.242188 16 16.800781 16 16.359375 16.359375 16 16.800781 16 17.242188 16 17.601562 16.359375 17.601562 16.800781 17.601562 17.242188 17.242188 17.601562 16.800781 17.601562zM20.398438 15.199219C19.519531 15.199219 18.800781 15.917969 18.800781 16.800781 18.800781 17.683594 19.519531 18.398438 20.398438 18.398438 21.28125 18.398438 22 17.683594 22 16.800781 22 15.917969 21.28125 15.199219 20.398438 15.199219zM20.398438 17.601562C19.957031 17.601562 19.601562 17.242188 19.601562 16.800781 19.601562 16.359375 19.957031 16 20.398438 16 20.839844 16 21.199219 16.359375 21.199219 16.800781 21.199219 17.242188 20.839844 17.601562 20.398438 17.601562zM20.398438 17.601562"/>
</svg>

<svg xmlns="http://www.w3.org/2000/svg" width="32" height="32" viewBox="0 0 24 24">
    <path d="M23.625 14.742c.246-.96.375-1.949.375-2.941C24 5.293 18.707 0 12.2 0 5.69 0 .397 5.293.397 11.8c0 2.06.54 4.079 1.559 5.86L.02 23.473a.402.402 0 0 0 .48.515l6.348-1.672a11.872 11.872 0 0 0 8.511.848c.465.086.95.133 1.442.133.992 0 1.953-.18 2.855-.535 1.617.91 3.793 1.222 3.887 1.234.02.004.039.004.055.004a.4.4 0 0 0 .359-.223.398.398 0 0 0-.074-.46c-.504-.505-.856-1.583-.996-3.047A6 6 0 0 0 24 16.8c0-.718-.137-1.41-.375-2.058zm-9.86 7.945c-1.89.274-3.84.032-5.609-.667l1.93-.43a.401.401 0 0 0 .305-.477.401.401 0 0 0-.477-.304L6.81 21.5c-.004 0-.004.004-.008.004h-.008l-5.781 1.52 1.761-5.282a.398.398 0 0 0-.035-.332A10.975 10.975 0 0 1 1.2 11.8c0-6.066 4.934-11 11-11 6.067 0 11 4.934 11 11 0 .598-.047 1.2-.144 1.79-.055-.086-.117-.168-.176-.254-.074-.11-.156-.215-.238-.32-.063-.079-.125-.153-.188-.227a6.293 6.293 0 0 0-.46-.477c-.079-.074-.165-.148-.247-.222l-.258-.211c-.074-.055-.144-.11-.218-.164-.094-.067-.188-.13-.282-.192l-.347-.21c-.094-.051-.188-.106-.282-.153a4.135 4.135 0 0 0-.265-.129c-.098-.047-.203-.09-.305-.133a5.93 5.93 0 0 0-.367-.14 5.543 5.543 0 0 0-.36-.121c-.082-.024-.167-.047-.25-.07a8.353 8.353 0 0 0-.449-.106l-.187-.035a8.125 8.125 0 0 0-.551-.078c-.059-.004-.121-.012-.18-.016a8.89 8.89 0 0 0-.644-.027c-3.973 0-7.2 2.914-7.2 6.496 0 .195.012.387.032.578l.023.203c.02.121.04.242.063.363.015.078.031.157.05.235.028.12.063.234.098.351.051.157.106.313.164.465.02.043.035.086.055.129.055.129.113.254.176.375l.011.023c.207.407.465.79.758 1.149.008.004.012.012.016.015.289.348.613.668.973.954a5.92 5.92 0 0 0 .379.29c.054.034.109.073.16.108.101.066.203.133.304.191.145.086.293.168.446.247.086.043.171.078.261.12.063.032.13.063.196.09zm8.387-2.765a.404.404 0 0 0-.074.27c.074.882.25 1.976.656 2.835-.793-.183-1.949-.515-2.84-1.05a.383.383 0 0 0-.359-.028 6.99 6.99 0 0 1-2.734.547c-.504 0-.992-.058-1.461-.156a6.46 6.46 0 0 1-.961-.27h-.004c-.129-.05-.258-.105-.387-.16-.043-.02-.086-.035-.129-.055-.125-.058-.246-.125-.367-.187-.039-.023-.078-.043-.113-.063a5.774 5.774 0 0 1-.367-.226l-.07-.047a5.519 5.519 0 0 1-.38-.273l-.011-.012a5.812 5.812 0 0 1-1.754-2.293c-.012-.027-.024-.05-.031-.078a5.604 5.604 0 0 1-.13-.36l-.046-.164c-.027-.105-.055-.207-.078-.312-.02-.09-.032-.176-.047-.266-.012-.082-.027-.16-.035-.238a4.916 4.916 0 0 1-.032-.535c0-3.14 2.872-5.696 6.403-5.696.195 0 .39.008.586.024l.203.023c.12.012.246.028.367.051.078.012.156.024.234.04.11.023.22.046.325.073l.238.059c.16.047.316.098.473.156.093.035.183.074.273.11.074.035.152.066.227.097.09.043.18.09.27.133.07.035.136.074.206.113.086.047.176.098.258.153a7.108 7.108 0 0 1 .633.45c.054.046.11.089.164.136.078.066.148.136.222.203.051.05.102.097.149.148.074.074.144.153.215.23.039.044.074.09.113.137.074.09.145.176.211.27.012.016.023.035.039.055.25.351.457.73.617 1.132.238.594.375 1.235.375 1.903a5.22 5.22 0 0 1-1.047 3.12zm0 0"/>
    <path d="M13.2 15.2a1.6 1.6 0 1 0 1.6 1.6c0-.882-.718-1.6-1.6-1.6zm0 2.402a.802.802 0 0 1 0-1.602.802.802 0 0 1 0 1.602zm0 0M16.8 15.2c-.882 0-1.6.718-1.6 1.6a1.6 1.6 0 1 0 1.6-1.6zm0 2.402a.802.802 0 0 1 0-1.602.802.802 0 0 1 0 1.602zm0 0M20.398 15.2A1.6 1.6 0 1 0 22 16.801c0-.884-.719-1.603-1.602-1.603zm0 2.402a.799.799 0 0 1-.796-.801.799.799 0 1 1 1.597 0c0 .441-.36.8-.8.8zm0 0"/>
</svg>
